X: 7071
T: Chris Droney's Favourite
R: reel
M: 4/4
K: Edorian
|:BEED ~E2fd|edBc dBAG|(3FED AD BDAD|(3FED FA dAFA|
BE~E2 (3Bcd fz|edBc defd|edef dBAF|1 DE (3FED E2 GA:|2 DE (3FED E2 Bd|
e2Be edfd|edBc dBAG|(3FED AD BDAD|(3FED FA dAFA|
Be ~e2 edfd|edBc def2|edef dBAF|1 DE (3FED E2 Bd:|2 DE (3FED E2 GA||

